dist/icons/svgs/house-circle-check-solid.svg

<svg xmlns="http://www.w3.org/2000/svg" width="24" height="24" fill="currentcolor" class="icon-house-circle-check-solid" viewBox="0 0 24 24">
  <path d="M12 15.7366H9.6C8.925 15.7366 8.4 16.322 8.4 16.9854V19.4829V20.4195C8.4 21.3171 7.725 21.9805 6.9 21.9805H6H4.8C4.725 21.9805 4.6875 21.9805 4.6125 21.9805C4.575 21.9805 4.5375 21.9805 4.4625 21.9805H3.8625C3.0375 21.9805 2.3625 21.3171 2.3625 20.4195V16.0878C2.3625 16.0488 2.3625 16.0098 2.4 15.9707V13.239H1.2C0.525 13.239 0 12.6927 0 11.9902C0 11.639 0.1125 11.3268 0.375 11.0537L9.975 2.3122C10.2375 2.03902 10.5375 2 10.8 2C11.0625 2 11.3625 2.07805 11.5875 2.27317L19.575 9.57073C19.2375 9.53171 18.9 9.49268 18.6 9.49268C15.15 9.49268 12.3 12.2634 12 15.7366ZM24 16.361C24 18.3902 22.95 20.2244 21.3 21.239C19.6125 22.2537 17.55 22.2537 15.9 21.239C14.2125 20.2244 13.2 18.3902 13.2 16.361C13.2 14.3707 14.2125 12.5366 15.9 11.522C17.55 10.5073 19.6125 10.5073 21.3 11.522C22.95 12.5366 24 14.3707 24 16.361ZM21.1125 14.6829C20.8875 14.4488 20.475 14.4488 20.25 14.6829L18 17.0634L16.9125 15.9317C16.6875 15.6976 16.275 15.6976 16.05 15.9317C15.825 16.1659 15.825 16.5951 16.05 16.8293L17.55 18.3902C17.775 18.6244 18.1875 18.6244 18.4125 18.3902L21.1125 15.5805C21.3375 15.3463 21.3375 14.9171 21.1125 14.6829Z"/>
</svg>

<svg xmlns="http://www.w3.org/2000/svg" width="24" height="24" fill="currentColor" class="icon-house-circle-check-solid" viewBox="0 0 24 24">
  <path d="M12 15.737H9.6c-.675 0-1.2.585-1.2 1.248v3.434c0 .898-.675 1.561-1.5 1.561H3.863c-.825 0-1.5-.663-1.5-1.56v-4.332c0-.04 0-.078.037-.117v-2.732H1.2c-.675 0-1.2-.546-1.2-1.249 0-.351.113-.663.375-.936l9.6-8.742c.263-.273.563-.312.825-.312s.563.078.787.273l7.988 7.298a9 9 0 0 0-.975-.078c-3.45 0-6.3 2.77-6.6 6.244m12 .624c0 2.03-1.05 3.863-2.7 4.878-1.687 1.015-3.75 1.015-5.4 0-1.687-1.015-2.7-2.849-2.7-4.878 0-1.99 1.013-3.824 2.7-4.839 1.65-1.015 3.713-1.015 5.4 0a5.7 5.7 0 0 1 2.7 4.839m-2.887-1.678a.617.617 0 0 0-.863 0L18 17.063l-1.087-1.131a.617.617 0 0 0-.863 0 .68.68 0 0 0 0 .897l1.5 1.561a.617.617 0 0 0 .863 0l2.7-2.81a.68.68 0 0 0 0-.897"/>
</svg>
